X:1
T:Rosmarin No 1 from Sieben Lieder, Opus 62 Recorder Quartet
T:Rosmarin No 1 from Sieben Lieder, Opus 62 -  Recorder Quartet 
T:Johannes Brahms
C:Johannes Brahms
%%score 1 2 3 4
L:1/8
Q:1/4=70
M:3/4
K:Bb
V:1 treble+8 nm="Soprano " snm="S"
V:2 treble nm="Alto " snm="A"
V:3 treble nm="Tenor " snm="T"
V:4 bass+8 nm="Bass " snm="B"
V:1
 G | BA d3 G | BA d3 g | ed c3 e | d^F G2 z d ||[M:4/4] cBcd ^F2 G2 | A2 ed cde z | %7
 (B2 c2) d2 z g | fedc B2 A2 | G4 z2 z |] %10
V:2
 d | g^f g3 d | g^f g3 g | ba g3 g | gd d2 z b ||[M:4/4] agab d2 =e2 | ^f2 c'b abc' z | %7
 (g2 a2) b2 z g | g2 g2 g2 ^f2 | g4 z2 z |] %10
V:3
 B | dc B3 B | dc B3 B | Bd e3 G | Bc B2 z2 ||[M:4/4] z dcB cdBd | (d2 A2) z edc | dgef d2 d2 | %8
 G2 c2 d3 c | B4 z2 z |] %10
V:4
 G, | G,G, G,3 G, | G,G, G,3 D, | G,F, E,3 C, | D,D, G,2 z2 ||[M:4/4] z B,A,G, A,D,G,B,, | %6
 (D,2 ^F,2) z CB,A, | B,G,CF, B,2 B,,2 | C,2 E,2 D,2 D,2 | G,,4 z2 z |] %10

